Hax/img/dino-simple.svg

<?xml version="1.0" encoding="UTF-8" standalone="no"?>
<svg width="256px" height="195px" viewBox="0 0 256 195" version="1.1" xmlns="http://www.w3.org/2000/svg" xmlns:xlink="http://www.w3.org/1999/xlink">
  <path d="M5.5652,62.5530 L38.2886,54.3165 C28.9391,61.2173 8.6817,76.8 0,87.9304 L0.6678,89.4886 C9.5721,85.9269 21.5930,81.6973 31.8330,77.9130 C26.7130,80.8069 12.6886,91.4921 5.5652,103.5130 L6.2330,105.2939 C15.5826,100.8417 33.1686,92.6052 33.1686,92.8278 C23.8191,101.2869 16.0278,111.0817 11.7982,120.6539 L12.4660,122.4347 L38.5113,109.0782 C32.9460,114.1982 25.6,122.2121 21.8156,133.7878 L22.7060,135.3460 L39.4017,123.7704 C36.0626,127.5547 32.0556,134.2330 30.4973,139.7982 L31.3878,141.5791 C35.3947,139.5756 41.1826,136.6817 48.7513,134.2330 C44.0765,137.3495 39.8469,140.0208 37.3982,143.1373 L37.8434,144.6956 C40.0695,144.9182 45.4121,145.1408 45.4121,145.1408 L33.8365,151.3739 C33.8365,151.3739 46.08,167.8469 65.4469,179.2 C87.04,192.1113 109.5234,194.1147 120.6539,194.1147 C127.1095,194.1147 133.12,193.4469 134.6782,193.2243 C134.6782,192.3339 133.5652,187.4365 132.4521,184.7652 C133.7878,182.7617 136.2365,174.5252 137.1269,169.6278 C140.6886,151.8191 142.0243,145.1408 158.4973,136.4591 C162.0591,134.6782 168.2921,130.4486 174.5252,130.4486 C182.5391,130.4486 193.6695,134.4556 200.5704,135.7913 C205.2452,136.6817 209.2521,137.3495 212.3686,137.3495 C217.7113,137.3495 228.8417,130.0034 233.5165,126.2191 C233.9617,126.4417 236.1878,126.8869 238.6365,126.8869 C239.9721,126.8869 241.5304,126.8869 242.8660,126.2191 C246.8730,124.4382 256,101.9547 256,98.8382 C256,96.3895 254.6643,93.2730 253.9965,86.1495 C253.5513,81.92 253.1060,72.3478 252.4382,70.3443 C249.0991,61.2173 229.2869,57.2104 206.8034,47.6382 C193.4469,41.8504 186.7686,34.2817 186.7686,34.2817 C186.7686,34.2817 187.4365,32.0556 187.4365,29.1617 C187.4365,23.1513 182.0939,6.9008 163.3947,6.9008 C154.9356,6.9008 147.1443,9.3495 144.9182,10.0173 C140.6886,10.0173 117.5373,0 106.4069,0 C79.2486,0 54.7617,19.1443 35.84,34.0591 C21.3704,45.4121 10.4626,55.6521 5.3426,60.7721 L5.5652,62.5530 Z" id="dino"></path>
</svg>

<svg width="256" height="195" viewBox="0 0 256 195" xmlns="http://www.w3.org/2000/svg"><path d="M5.565 62.553l32.724-8.236C28.94 61.216 8.68 76.8 0 87.93l.668 1.56c8.904-3.563 20.925-7.793 31.165-11.577-5.12 2.894-19.144 13.58-26.268 25.6l.668 1.78c9.35-4.45 26.936-12.688 26.936-12.465-9.35 8.46-17.142 18.254-21.372 27.826l.668 1.78L38.51 109.08c-5.564 5.12-12.91 13.134-16.694 24.71l.89 1.558 16.696-11.576c-3.34 3.785-7.346 10.463-8.905 16.028l.89 1.78c4.008-2.002 9.796-4.896 17.364-7.345-4.673 3.117-8.903 5.788-11.352 8.904l.445 1.56c2.226.22 7.57.444 7.57.444l-11.576 6.234s12.243 16.473 31.61 27.826c21.593 12.91 44.076 14.915 55.207 14.915 6.456 0 12.466-.668 14.024-.89 0-.89-1.113-5.788-2.226-8.46 1.336-2.003 3.785-10.24 4.675-15.137 3.562-17.81 4.897-24.487 21.37-33.17 3.562-1.78 9.795-6.01 16.028-6.01 8.014 0 19.144 4.008 26.045 5.343 4.675.892 8.682 1.56 11.8 1.56 5.34 0 16.472-7.347 21.147-11.13.445.222 2.67.667 5.12.667 1.335 0 2.893 0 4.23-.668C246.872 124.437 256 101.954 256 98.837c0-2.448-1.336-5.565-2.004-12.688-.445-4.23-.89-13.802-1.558-15.806-3.34-9.127-23.15-13.134-45.635-22.706-13.356-5.788-20.034-13.356-20.034-13.356s.666-2.226.666-5.12c0-6.01-5.342-22.26-24.04-22.26-8.46 0-16.252 2.448-18.478 3.115-4.23 0-27.38-10.017-38.51-10.017C79.247 0 54.76 19.144 35.84 34.06 21.37 45.41 10.463 55.65 5.343 60.77l.222 1.78z"/></svg>
